X:1
T:Dolce nemica mia
T:Tiburtio Massaino
T:Dolce nemica mia 
C:Tiburtio Massaino
%%score [ 1 2 3 4 ]
L:1/8
Q:1/4=80
M:4/2
K:C
V:1 alto1 nm="Canto" snm="C"
V:2 alto nm="Alto" snm="A"
V:3 tenor nm="Tenore" snm="T"
V:4 bass nm="Basso" snm="B"
V:1
 z16 | z4 z2 A4 G4 F2 | G2 A2 _B4 A8 | z4 A4 F2 G2 A4- | A4 _B4 A4 c4 | _B16 | A8 z2 A2 G2 A2 | %7
w: |Dol- ce ne-|mi- ca mi- a,|Nel cui bel gremb'|_ a- mor s’an-|ni-|da Et per ma-|
 F2 G2 G4 A2 c2 B2 c2 | A2 B2 c4 B8 | z4 z2 d2 c2 B2 A4 | A2 c2 B2 A2 A2 G2 A4 | %11
w: gior di- let- to, et per ma-|gior di- let- to|Si sben- da gli oc-|chi, Si sben- da gli oc- * chi,|
 z2 B2 c4 B2 A4 G2 | F4 E4 z4 z2 A2 | A2 G2 A8 A4 | z4 c4 d4 c4 | _B4 A4 z4 F4 | E8 D8 | z8 z4 E4 | %18
w: e il vo- stro bian- co|pet- to Mi-|ran- do ba- scia,|Mi- ran- do|ba- scia et|di- ce,|Quest’|
 F2 G2 A6 G2 F4 | E4 z2 c2 A2 G2 E2 F2 | E8 E8 | z8 ^F8 | G4 G4 A6 B2 | c4 B4 z2 d2 d3 c | %24
w: e quel ben fe- li-|ce, Quest’ e quel ben fe-|li- ce,|La|cui bel- lez- *|* za in piu di|
 B2 d2 c8 A4 | z4 G4 A3 B c4 | c4 G4 A3 B c4 | B4 z2 B2 c4 B4 | A4 G4 F8 | E4 z4 z8 | %30
w: mil- le car- te,|Cia- scun’ e- sal-|ta, Cia- scun’ e- sal-|ta et la più|de- gna par-|te|
 z8 z4 z2 A2- | A2 c4 B4 A4 ^G2 | A4 A4 z2 E2 E2 ^F2 | G2 E2 A4 G4 F3 G | A16 | %35
w: Ten-|* go per mio bel|seg- gio, Quest’ e ma-|do- na il se- no on- de io va-|neg-|
 G2 A2 A2 B2 c2 A2 G4 | A4 F2 G2 A4 A4 | z4 z2 G2 F2 G2 E4 | D8 z4 B4 | c4 B4 A4 G4 | F8 E4 z4 | %41
w: gio, Quest’ e ma- do- na il se-|no on- de io va- neg- gio,|ond' io va- neg-|gio, et|la più de- gna|par- te|
 z16 | z4 z2 A4 c4 B2- | B2 A4 ^G2 A4 A4 | z2 E2 E2 ^F2 G2 E2 A4 | G4 F3 G A8- | A8 G2 A2 A2 B2 | %47
w: |Ten- go per|_ mio bel seg- gio,|Quest’ e ma- do- na il se-|no on- de io va- neg-|* gio, Quest’ e ma-|
 c2 A2 G4 A4 F2 G2 | A4 A4 z4 z2 G2 | F2 G2 E4 D8- | D16 |] %51
w: do- na il se- no on- de io va-|neg- gio, ond'|io va- neg- gio.|_|
V:2
 z16 | z8 z2 E4 D2- | D2 C2 D2 E2 F4 E4 | z2 E2 C2 C2 D4 C4 | z2 F2 D2 E2 F4 E4 | G4 G4 G8 | %6
w: |Dol- ce|_ ne- mi- ca mi- a,|ne- mi- ca mi- a,|Nel cui bel gremb' a-|mor s’an- ni-|
 F8 z8 | z2 E2 D2 E2 F2 E2 E2 E2 | F2 G2 A6 ^G^F G4 | A2 A2 G2 F2 E4 F4 | z8 z2 E2 D2 C2 | %11
w: da|Et per ma- gior, et per ma-|gior di- let- * * *|to Si sben- da gli oc- chi,|Si sben- da|
 B,4 A,4 z8 | z2 D2 E2 C2 F2 F2 E4 | D4 z2 E2 F4 E4 | D4 E2 G4 F4 E2 | G4 C4 z2 A,4 D2- | %16
w: gli oc- chi,|e il vo- stro bian- co pet-|to Mi- ran- do|ba- scia, Mi- ran- do|ba- scia et di-|
 D2 ^CB, C4 D8 | z16 | z8 z2 G,2 A,2 B,2 | C4 B,2 C2 D2 E4 D2 | C4 B,4 z8 | ^C8 D4 D4 | %22
w: * * * * ce,||Quest’ e quel|ben, Quest’ e quel ben fe-|li- ce,|La cui bel-|
 E4 E4 C6 D2 | E3 F G4 G4 z2 G2 | G3 F E2 G2 F4 E4 | z4 D4 F3 G A4 | E4 z2 E2 F3 G A4 | %27
w: lezz’ in piu di|mil- le car- te, in|piu di mil- le car- te,|Cia- scun’ e- sal-|ta, Cia- scun’ e- sal-|
 G4 z2 G2 G6 G2 | F6 E2 C4 D4 | z16 | z8 z2 F4 F2- | F2 A2 G6 F2 E4- | E2 D2 EDCB, C4 A,4 | %33
w: ta et la più|de- gna par- te||Ten- go|_ per mio bel seg-|* * * * * * * gio,|
 z2 C2 C2 D2 E2 C2 D3 E | F4 F2 D2 C2 D2 A,B,CD | E2 C2 F4 E2 D2 D2 E2 | F4 D4 z2 D2 D2 E2 | %37
w: Quest’ e ma- do- na il se- *|* no, Quest’ e ma- do- * * *|* na il se- no, ond' io va-|neg- gio, ond' io va-|
 F4 E2 E2 D2 B,2 C4 | A,8 z4 G4 | G6 G2 F6 E2 | C4 D4 z8 | z16 | z2 F4 F4 A2 G4- | %43
w: neg- gio, ond' io va- neg-|gio, et|la più de- gna|par- te||Ten- go per mio|
 G2 F2 E6 D2 EDCB, | C4 A,4 z2 C2 C2 D2 | E2 C2 D3 E F4 F2 D2 | C2 D2 A,B,CD E2 C2 F4 | %47
w: _ bel seg- * * * * *|* gio, Quest’ e ma-|do- na il se- * * no, Quest’|e ma- do- * * * * na il se-|
 E2 D2 D2 E2 F4 D4 | z2 D2 D2 E2 F4 E2 E2 | D2 B,2 C4 A,8- | A,16 |] %51
w: no, ond' io va- neg- gio,|ond' io va- neg- gio, ond'|io va- neg- gio.|_|
V:3
 z16 | D8 C4 A,2 _B,2- | B,2 A,2 G,4 F,4 A,4 | F,2 G,2 A,2 A,2 _B,4 A,4 | z2 D2 _B,2 C2 D4 C4 | %5
w: |Dol- ce ne- mi-|* ca mi- a, Dol-|ce ne- mi- ca mi- a,|Nel cui bel gremb' a-|
 D4 D4 D8- | D8 C8 | z2 C2 B,2 C2 A,2 A,2 B,2 A,2 | D2 E2 E4 E4 z2 E2 | D2 C2 B,4 C4 z4 | %10
w: mor s’an- ni-|* da|Et per ma- gior, et per ma-|gior di- let- to Si|sben- da gli oc- chi,|
 z4 z2 D2 C2 B,2 A,4 | G,4 z2 C2 D2 A,2 C4 | D2 A,B, CD E3 D D4 ^C2 | D4 z2 C2 D4 C4 | %14
w: Si sben- da gli oc-|chi, e il vo- stro bian-|co pet- * * * * * * *|to Mi- ran- do|
 _B,4 A,4 z2 D2 E2 C2 | D2 E2 F4 E4 z2 A,2 | A,8 A,8 | z4 G,4 A,4 B,2 C2- | C2 B,2 C2 D2 E6 D2 | %19
w: ba- scia, Mi- ran- do|ba- scia et di- ce, et|di- ce,|Quest’ e quel ben,|_ Quest’ e quel ben fe-|
 C4 D2 G,2 A,2 B,2 C2 B,2- | B,2 A,4 ^G,2 A,8- | A,8 z4 D,4 | G,4 G,4 F,4 A,4 | G,6 A,2 B,3 C D4- | %24
w: li- ce, Quest’ e quel ben fe-|* li- * ce,|_ La|cui bel- lezz’ in|piu di mil- le car-|
 D4 E4 z2 C2 C3 B, | A,2 C2 B,4 C4 z2 C2 | C3 D E4 C2 C2 C3 D | E4 D2 D2 E3 E D2 E2 | %28
w: * te, in piu di|mil- le car- te, Cia-|scun’ e- sal- ta, Cia- scun’ e-|sal- ta et la più de- gna|
 C8 A,4 z2 A,2- | A,2 C4 B,4 A,4 ^G,2 | A,4 A,4 z4 D4 | C4 E2 D4 C2 B,4 | A,8 z8 | %33
w: par- te Ten-|* go per mio bel|seg- gio, Ten-|go per mio bel seg-|gio,|
 z2 A,2 A,2 B,2 C2 G,2 _B,4 | A,4 z2 A,2 A,2 B,2 C2 A,2 | C4 D4 C2 D2 _B,4 | A,4 z4 A,4 F,2 G,2 | %37
w: Quest’ e ma- do- na il se-|no, Quest’ e ma- do- na il|se- no on- de io va- neg-|gio, ond' io va-|
 A,4 A,2 C2 A,2 G,2 A,4 | ^F,8 z4 D4 | E3 E D2 E2 C8 | A,4 z2 A,4 C4 B,2- | B,2 A,4 ^G,2 A,4 A,4 | %42
w: neg- gio, ond' io va- neg-|gio, et|la più de- gna par-|te Ten- go per|_ mio bel seg- gio,|
 z4 D4 C4 E2 D2- | D2 C2 B,4 A,8 | z8 z2 A,2 A,2 B,2 | C2 G,2 _B,4 A,4 z2 A,2 | %46
w: Ten- go per mio|_ bel seg- gio,|Quest’ e ma-|do- na il se- no, Quest’|
 A,2 B,2 C2 A,2 C4 D4 | C2 D2 _B,4 A,4 z4 | A,4 F,2 G,2 A,4 A,2 C2 | A,2 G,2 A,4 ^F,8- | F,16 |] %51
w: e ma- do- na il se- no on-|de io va- neg- gio,|ond' io va- neg- gio, ond'|io va- neg- gio.|_|
V:4
 z16 | z16 | z16 | z4 F,4 D,2 E,2 F,4- | F,4 G,4 F,4 A,4 | G,16 | D,8 z2 F,2 E,2 F,2 | %7
w: |||Nel cui bel gremb'|_ a- mor s’an-|ni-|da Et per ma-|
 D,2 C,2 G,2 C,2 z2 A,2 G,2 A,2 | F,2 E,2 A,4 E,6 E,2 | F,4 G,4 A,4 D,4 | z2 A,2 G,2 F,2 E,4 F,4 | %11
w: gior di- let- to, Et per ma-|gior di- let- to Si|sben- da gli oc- chi,|Si sben- da gli oc- chi,|
 z2 E,2 A,4 G,2 F,4 E,2 | D,4 C,4 z4 A,4 | _B,4 A,4 D,4 A,4 | z4 A,4 _B,4 A,4 | G,4 F,4 z4 D,4 | %16
w: e il vo- stro bian- co|pet- to Mi-|ran- do ba- scia,|Mi- ran- do|ba- scia et|
 A,,8 D,8 | z4 E,4 F,4 G,2 A,2- | A,2 G,2 F,4 E,2 E,2 F,2 G,2 | A,4 z2 E,2 F,2 G,2 A,2 D,2 | %20
w: di- ce,|Quest’ e quel ben|_ fe- li- ce, Quest’ e quel|ben, Quest’ e quel ben fe-|
 E,8 A,,8 | z4 A,,4 D,4 D,4 | C,8 F,4 C,4- | C,2 D,2 E,3 F, G,8- | G,4 C,4 z2 A,2 A,3 G, | %25
w: li- ce,|La cui bel-|lezz’ in piu|_ di mil- le car-|* te, in piu di|
 F,2 A,2 G,4 F,4 F,4 | A,3 B, C4 F,8 | z4 G,4 C,3 C, G,2 E,2 | F,4 C,4 z4 D,4 | %29
w: mil- le car- te, Cia-|scun’ e- sal- ta|et la più de- gna|par- te Ten-|
 C,4 E,2 D,4 C,2 B,,4 | A,,4 z4 D,8 | F,4 C,2 G,4 A,2 E,4 | A,,8 z2 C,2 C,2 D,2 | %33
w: go per mio bel seg-|gio, Ten-|go per mio bel seg-|gio, Quest’ e ma-|
 E,2 C,2 F,4 E,4 D,4- | D,4 D,4 F,8 | E,2 F,2 F,2 G,2 A,2 F,2 G,4 | D,4 D,2 E,2 F,4 D,4 | %37
w: do- na il se- no on- de io|_ va- neg-|gio, Quest’ e ma- do- na il se-|no on- de io va- neg- gio,|
 z4 C,4 D,2 E,2 A,,4 | D,8 z4 G,4 | C,3 C, G,2 E,2 F,4 C,4 | z4 D,4 C,4 E,2 D,2- | %41
w: ond' io va- neg-|gio, et|la più de- gna par- te|Ten- go per mio|
 D,2 C,2 B,,4 A,,4 z4 | D,8 F,4 C,2 G,2- | G,2 A,2 E,4 A,,8 | z2 C,2 C,2 D,2 E,2 C,2 F,4 | %45
w: _ bel seg- gio,|Ten- go per mio|_ bel seg- gio,|Quest’ e ma- do- na il se-|
 E,4 D,8 D,4 | F,8 E,2 F,2 F,2 G,2 | A,2 F,2 G,4 D,4 D,2 E,2 | F,4 D,4 z4 C,4 | D,2 E,2 A,,4 D,8- | %50
w: no on- de io va-|neg- gio, Quest’ e ma-|do- na il se- no on- de io va-|neg- gio, ond'|io va- neg- gio.|
 D,16 |] %51
w: _|

